src/assets/icons/svg/clock.svg

<?xml version="1.0" encoding="UTF-8"?>
<svg width="24px" height="24px" viewBox="0 0 24 24" version="1.1" xmlns="http://www.w3.org/2000/svg" xmlns:xlink="http://www.w3.org/1999/xlink">
    <!-- Generator: sketchtool 61 (101010) - https://sketch.com -->
    <title>5c4285ff-3c8c-4177-bf76-71109d92ec9b@2.00x</title>
    <desc>Created with sketchtool.</desc>
    <g id="Icons" stroke="none" stroke-width="1" fill="none" fill-rule="evenodd">
        <g id="Icons/Clock/24">
            <rect id="Bounding-box" x="0" y="0" width="24" height="24"></rect>
            <path d="M11.80416,-2.30926389e-13 C18.32352,-2.30926389e-13 23.60928,5.2848 23.60928,11.80416 C23.60928,18.32352 18.32352,23.60928 11.80416,23.60928 C5.2848,23.60928 -3.37507799e-14,18.32352 -3.37507799e-14,11.80416 C-3.37507799e-14,5.2848 5.2848,-2.30926389e-13 11.80416,-2.30926389e-13 Z M11.80416,2.5296 C6.6912,2.5296 2.53056,6.69024 2.53056,11.80416 C2.53056,16.91904 6.6912,21.07968 11.80416,21.07968 C16.91808,21.07968 21.07968,16.91904 21.07968,11.80416 C21.07968,6.69024 16.91808,2.5296 11.80416,2.5296 Z M13.068768,5.842464 L13.068768,11.280864 L16.665888,14.877024 L14.878368,16.665504 L10.539168,12.328224 L10.539168,5.842464 L13.068768,5.842464 Z" id="Color" fill="#000000"></path>
        </g>
    </g>
</svg>

<?xml version="1.0" encoding="UTF-8"?>
<svg version="1.1" viewBox="0 0 24 24" xmlns="http://www.w3.org/2000/svg">
<title>5c4285ff-3c8c-4177-bf76-71109d92ec9b@2.00x</title>
<desc>Created with sketchtool.</desc>
<g fill="none" fill-rule="evenodd">
<rect width="24" height="24"/>
<path d="m11.804-2.3093e-13c6.5194 0 11.805 5.2848 11.805 11.804s-5.2858 11.805-11.805 11.805-11.804-5.2858-11.804-11.805 5.2848-11.804 11.804-11.804zm0 2.5296c-5.113 0-9.2736 4.1606-9.2736 9.2746 0 5.1149 4.1606 9.2755 9.2736 9.2755 5.1139 0 9.2755-4.1606 9.2755-9.2755 0-5.1139-4.1616-9.2746-9.2755-9.2746zm1.2646 3.3129v5.4384l3.5971 3.5962-1.7875 1.7885-4.3392-4.3373v-6.4858h2.5296z" fill="#000"/>
</g>
</svg>
